X:50
T:The Swallow's Tail
R:reel
O:Ireland
M:C
L:1/8
K:Dmix
df | "Am" eA (3(cBA) eAcA | cdef  gedB | "G" G2 BG dGBG | cdef     g2    fg |
     "Am" eA (3(cBA) eAcA | cdef g2 fg | "G" afge  dBGB | "Em" cABG "Am" A2 :|
cd | "Am" eaag       abag | edef  gedB | "G" G2 BG dGBG | cdef     g2    fg |
     "Am" eaag       abag | edef g2 fg | "G" afge  dBGB | "Em" cABG "Am" A2 :|
